assets/dark_lut.cube
#Created by: Affinity Photo (Serif Europe Ltd.)
TITLE "Exported LUT"
#LUT size
LUT_3D_SIZE 8
#data domain
#LUT data points
DOMAIN_MIN 0.000000 0.000000 0.000000
DOMAIN_MAX 0.903226 0.903226 0.903226
0.000000 0.000000 0.000000
0.046717 0.000000 0.000000
0.098209 0.000000 0.000000
0.155944 0.000000 0.000000
0.222290 0.000000 0.000000
0.301495 0.000000 0.000000
0.402703 0.000000 0.000000
0.554595 0.000000 0.000000
0.000000 0.046717 0.000000
0.046717 0.046717 0.000000
0.098209 0.046717 0.000000
0.155944 0.046717 0.000000
0.222290 0.046717 0.000000
0.301495 0.046717 0.000000
0.402703 0.046717 0.000000
0.554595 0.046717 0.000000
0.000000 0.098209 0.000000
0.046717 0.098209 0.000000
0.098209 0.098209 0.000000
0.155944 0.098209 0.000000
0.222290 0.098209 0.000000
0.301495 0.098209 0.000000
0.402703 0.098209 0.000000
0.554595 0.098209 0.000000
0.000000 0.155944 0.000000
0.046717 0.155944 0.000000
0.098209 0.155944 0.000000
0.155944 0.155944 0.000000
0.222290 0.155944 0.000000
0.301495 0.155944 0.000000
0.402703 0.155944 0.000000
0.554595 0.155944 0.000000
0.000000 0.222290 0.000000
0.046717 0.222290 0.000000
0.098209 0.222290 0.000000
0.155944 0.222290 0.000000
0.222290 0.222290 0.000000
0.301495 0.222290 0.000000
0.402703 0.222290 0.000000
0.554595 0.222290 0.000000
0.000000 0.301495 0.000000
0.046717 0.301495 0.000000
0.098209 0.301495 0.000000
0.155944 0.301495 0.000000
0.222290 0.301495 0.000000
0.301495 0.301495 0.000000
0.402703 0.301495 0.000000
0.554595 0.301495 0.000000
0.000000 0.402703 0.000000
0.046717 0.402703 0.000000
0.098209 0.402703 0.000000
0.155944 0.402703 0.000000
0.222290 0.402703 0.000000
0.301495 0.402703 0.000000
0.402703 0.402703 0.000000
0.554595 0.402703 0.000000
0.000000 0.554595 0.000000
0.046717 0.554595 0.000000
0.098209 0.554595 0.000000
0.155944 0.554595 0.000000
0.222290 0.554595 0.000000
0.301495 0.554595 0.000000
0.402703 0.554595 0.000000
0.554595 0.554595 0.000000
0.000000 0.000000 0.046717
0.046717 0.000000 0.046717
0.098209 0.000000 0.046717
0.155944 0.000000 0.046717
0.222290 0.000000 0.046717
0.301495 0.000000 0.046717
0.402703 0.000000 0.046717
0.554595 0.000000 0.046717
0.000000 0.046717 0.046717
0.046717 0.046717 0.046717
0.098209 0.046717 0.046717
0.155944 0.046717 0.046717
0.222290 0.046717 0.046717
0.301495 0.046717 0.046717
0.402703 0.046717 0.046717
0.554595 0.046717 0.046717
0.000000 0.098209 0.046717
0.046717 0.098209 0.046717
0.098209 0.098209 0.046717
0.155944 0.098209 0.046717
0.222290 0.098209 0.046717
0.301495 0.098209 0.046717
0.402703 0.098209 0.046717
0.554595 0.098209 0.046717
0.000000 0.155944 0.046717
0.046717 0.155944 0.046717
0.098209 0.155944 0.046717
0.155944 0.155944 0.046717
0.222290 0.155944 0.046717
0.301495 0.155944 0.046717
0.402703 0.155944 0.046717
0.554595 0.155944 0.046717
0.000000 0.222290 0.046717
0.046717 0.222290 0.046717
0.098209 0.222290 0.046717
0.155944 0.222290 0.046717
0.222290 0.222290 0.046717
0.301495 0.222290 0.046717
0.402703 0.222290 0.046717
0.554595 0.222290 0.046717
0.000000 0.301495 0.046717
0.046717 0.301495 0.046717
0.098209 0.301495 0.046717
0.155944 0.301495 0.046717
0.222290 0.301495 0.046717
0.301495 0.301495 0.046717
0.402703 0.301495 0.046717
0.554595 0.301495 0.046717
0.000000 0.402703 0.046717
0.046717 0.402703 0.046717
0.098209 0.402703 0.046717
0.155944 0.402703 0.046717
0.222290 0.402703 0.046717
0.301495 0.402703 0.046717
0.402703 0.402703 0.046717
0.554595 0.402703 0.046717
0.000000 0.554595 0.046717
0.046717 0.554595 0.046717
0.098209 0.554595 0.046717
0.155944 0.554595 0.046717
0.222290 0.554595 0.046717
0.301495 0.554595 0.046717
0.402703 0.554595 0.046717
0.554595 0.554595 0.046717
0.000000 0.000000 0.098209
0.046717 0.000000 0.098209
0.098209 0.000000 0.098209
0.155944 0.000000 0.098209
0.222290 0.000000 0.098209
0.301495 0.000000 0.098209
0.402703 0.000000 0.098209
0.554595 0.000000 0.098209
0.000000 0.046717 0.098209
0.046717 0.046717 0.098209
0.098209 0.046717 0.098209
0.155944 0.046717 0.098209
0.222290 0.046717 0.098209
0.301495 0.046717 0.098209
0.402703 0.046717 0.098209
0.554595 0.046717 0.098209
0.000000 0.098209 0.098209
0.046717 0.098209 0.098209
0.098209 0.098209 0.098209
0.155944 0.098209 0.098209
0.222290 0.098209 0.098209
0.301495 0.098209 0.098209
0.402703 0.098209 0.098209
0.554595 0.098209 0.098209
0.000000 0.155944 0.098209
0.046717 0.155944 0.098209
0.098209 0.155944 0.098209
0.155944 0.155944 0.098209
0.222290 0.155944 0.098209
0.301495 0.155944 0.098209
0.402703 0.155944 0.098209
0.554595 0.155944 0.098209
0.000000 0.222290 0.098209
0.046717 0.222290 0.098209
0.098209 0.222290 0.098209
0.155944 0.222290 0.098209
0.222290 0.222290 0.098209
0.301495 0.222290 0.098209
0.402703 0.222290 0.098209
0.554595 0.222290 0.098209
0.000000 0.301495 0.098209
0.046717 0.301495 0.098209
0.098209 0.301495 0.098209
0.155944 0.301495 0.098209
0.222290 0.301495 0.098209
0.301495 0.301495 0.098209
0.402703 0.301495 0.098209
0.554595 0.301495 0.098209
0.000000 0.402703 0.098209
0.046717 0.402703 0.098209
0.098209 0.402703 0.098209
0.155944 0.402703 0.098209
0.222290 0.402703 0.098209
0.301495 0.402703 0.098209
0.402703 0.402703 0.098209
0.554595 0.402703 0.098209
0.000000 0.554595 0.098209
0.046717 0.554595 0.098209
0.098209 0.554595 0.098209
0.155944 0.554595 0.098209
0.222290 0.554595 0.098209
0.301495 0.554595 0.098209
0.402703 0.554595 0.098209
0.554595 0.554595 0.098209
0.000000 0.000000 0.155944
0.046717 0.000000 0.155944
0.098209 0.000000 0.155944
0.155944 0.000000 0.155944
0.222290 0.000000 0.155944
0.301495 0.000000 0.155944
0.402703 0.000000 0.155944
0.554595 0.000000 0.155944
0.000000 0.046717 0.155944
0.046717 0.046717 0.155944
0.098209 0.046717 0.155944
0.155944 0.046717 0.155944
0.222290 0.046717 0.155944
0.301495 0.046717 0.155944
0.402703 0.046717 0.155944
0.554595 0.046717 0.155944
0.000000 0.098209 0.155944
0.046717 0.098209 0.155944
0.098209 0.098209 0.155944
0.155944 0.098209 0.155944
0.222290 0.098209 0.155944
0.301495 0.098209 0.155944
0.402703 0.098209 0.155944
0.554595 0.098209 0.155944
0.000000 0.155944 0.155944
0.046717 0.155944 0.155944
0.098209 0.155944 0.155944
0.155944 0.155944 0.155944
0.222290 0.155944 0.155944
0.301495 0.155944 0.155944
0.402703 0.155944 0.155944
0.554595 0.155944 0.155944
0.000000 0.222290 0.155944
0.046717 0.222290 0.155944
0.098209 0.222290 0.155944
0.155944 0.222290 0.155944
0.222290 0.222290 0.155944
0.301495 0.222290 0.155944
0.402703 0.222290 0.155944
0.554595 0.222290 0.155944
0.000000 0.301495 0.155944
0.046717 0.301495 0.155944
0.098209 0.301495 0.155944
0.155944 0.301495 0.155944
0.222290 0.301495 0.155944
0.301495 0.301495 0.155944
0.402703 0.301495 0.155944
0.554595 0.301495 0.155944
0.000000 0.402703 0.155944
0.046717 0.402703 0.155944
0.098209 0.402703 0.155944
0.155944 0.402703 0.155944
0.222290 0.402703 0.155944
0.301495 0.402703 0.155944
0.402703 0.402703 0.155944
0.554595 0.402703 0.155944
0.000000 0.554595 0.155944
0.046717 0.554595 0.155944
0.098209 0.554595 0.155944
0.155944 0.554595 0.155944
0.222290 0.554595 0.155944
0.301495 0.554595 0.155944
0.402703 0.554595 0.155944
0.554595 0.554595 0.155944
0.000000 0.000000 0.222290
0.046717 0.000000 0.222290
0.098209 0.000000 0.222290
0.155944 0.000000 0.222290
0.222290 0.000000 0.222290
0.301495 0.000000 0.222290
0.402703 0.000000 0.222290
0.554595 0.000000 0.222290
0.000000 0.046717 0.222290
0.046717 0.046717 0.222290
0.098209 0.046717 0.222290
0.155944 0.046717 0.222290
0.222290 0.046717 0.222290
0.301495 0.046717 0.222290
0.402703 0.046717 0.222290
0.554595 0.046717 0.222290
0.000000 0.098209 0.222290
0.046717 0.098209 0.222290
0.098209 0.098209 0.222290
0.155944 0.098209 0.222290
0.222290 0.098209 0.222290
0.301495 0.098209 0.222290
0.402703 0.098209 0.222290
0.554595 0.098209 0.222290
0.000000 0.155944 0.222290
0.046717 0.155944 0.222290
0.098209 0.155944 0.222290
0.155944 0.155944 0.222290
0.222290 0.155944 0.222290
0.301495 0.155944 0.222290
0.402703 0.155944 0.222290
0.554595 0.155944 0.222290
0.000000 0.222290 0.222290
0.046717 0.222290 0.222290
0.098209 0.222290 0.222290
0.155944 0.222290 0.222290
0.222290 0.222290 0.222290
0.301495 0.222290 0.222290
0.402703 0.222290 0.222290
0.554595 0.222290 0.222290
0.000000 0.301495 0.222290
0.046717 0.301495 0.222290
0.098209 0.301495 0.222290
0.155944 0.301495 0.222290
0.222290 0.301495 0.222290
0.301495 0.301495 0.222290
0.402703 0.301495 0.222290
0.554595 0.301495 0.222290
0.000000 0.402703 0.222290
0.046717 0.402703 0.222290
0.098209 0.402703 0.222290
0.155944 0.402703 0.222290
0.222290 0.402703 0.222290
0.301495 0.402703 0.222290
0.402703 0.402703 0.222290
0.554595 0.402703 0.222290
0.000000 0.554595 0.222290
0.046717 0.554595 0.222290
0.098209 0.554595 0.222290
0.155944 0.554595 0.222290
0.222290 0.554595 0.222290
0.301495 0.554595 0.222290
0.402703 0.554595 0.222290
0.554595 0.554595 0.222290
0.000000 0.000000 0.301495
0.046717 0.000000 0.301495
0.098209 0.000000 0.301495
0.155944 0.000000 0.301495
0.222290 0.000000 0.301495
0.301495 0.000000 0.301495
0.402703 0.000000 0.301495
0.554595 0.000000 0.301495
0.000000 0.046717 0.301495
0.046717 0.046717 0.301495
0.098209 0.046717 0.301495
0.155944 0.046717 0.301495
0.222290 0.046717 0.301495
0.301495 0.046717 0.301495
0.402703 0.046717 0.301495
0.554595 0.046717 0.301495
0.000000 0.098209 0.301495
0.046717 0.098209 0.301495
0.098209 0.098209 0.301495
0.155944 0.098209 0.301495
0.222290 0.098209 0.301495
0.301495 0.098209 0.301495
0.402703 0.098209 0.301495
0.554595 0.098209 0.301495
0.000000 0.155944 0.301495
0.046717 0.155944 0.301495
0.098209 0.155944 0.301495
0.155944 0.155944 0.301495
0.222290 0.155944 0.301495
0.301495 0.155944 0.301495
0.402703 0.155944 0.301495
0.554595 0.155944 0.301495
0.000000 0.222290 0.301495
0.046717 0.222290 0.301495
0.098209 0.222290 0.301495
0.155944 0.222290 0.301495
0.222290 0.222290 0.301495
0.301495 0.222290 0.301495
0.402703 0.222290 0.301495
0.554595 0.222290 0.301495
0.000000 0.301495 0.301495
0.046717 0.301495 0.301495
0.098209 0.301495 0.301495
0.155944 0.301495 0.301495
0.222290 0.301495 0.301495
0.301495 0.301495 0.301495
0.402703 0.301495 0.301495
0.554595 0.301495 0.301495
0.000000 0.402703 0.301495
0.046717 0.402703 0.301495
0.098209 0.402703 0.301495
0.155944 0.402703 0.301495
0.222290 0.402703 0.301495
0.301495 0.402703 0.301495
0.402703 0.402703 0.301495
0.554595 0.402703 0.301495
0.000000 0.554595 0.301495
0.046717 0.554595 0.301495
0.098209 0.554595 0.301495
0.155944 0.554595 0.301495
0.222290 0.554595 0.301495
0.301495 0.554595 0.301495
0.402703 0.554595 0.301495
0.554595 0.554595 0.301495
0.000000 0.000000 0.402703
0.046717 0.000000 0.402703
0.098209 0.000000 0.402703
0.155944 0.000000 0.402703
0.222290 0.000000 0.402703
0.301495 0.000000 0.402703
0.402703 0.000000 0.402703
0.554595 0.000000 0.402703
0.000000 0.046717 0.402703
0.046717 0.046717 0.402703
0.098209 0.046717 0.402703
0.155944 0.046717 0.402703
0.222290 0.046717 0.402703
0.301495 0.046717 0.402703
0.402703 0.046717 0.402703
0.554595 0.046717 0.402703
0.000000 0.098209 0.402703
0.046717 0.098209 0.402703
0.098209 0.098209 0.402703
0.155944 0.098209 0.402703
0.222290 0.098209 0.402703
0.301495 0.098209 0.402703
0.402703 0.098209 0.402703
0.554595 0.098209 0.402703
0.000000 0.155944 0.402703
0.046717 0.155944 0.402703
0.098209 0.155944 0.402703
0.155944 0.155944 0.402703
0.222290 0.155944 0.402703
0.301495 0.155944 0.402703
0.402703 0.155944 0.402703
0.554595 0.155944 0.402703
0.000000 0.222290 0.402703
0.046717 0.222290 0.402703
0.098209 0.222290 0.402703
0.155944 0.222290 0.402703
0.222290 0.222290 0.402703
0.301495 0.222290 0.402703
0.402703 0.222290 0.402703
0.554595 0.222290 0.402703
0.000000 0.301495 0.402703
0.046717 0.301495 0.402703
0.098209 0.301495 0.402703
0.155944 0.301495 0.402703
0.222290 0.301495 0.402703
0.301495 0.301495 0.402703
0.402703 0.301495 0.402703
0.554595 0.301495 0.402703
0.000000 0.402703 0.402703
0.046717 0.402703 0.402703
0.098209 0.402703 0.402703
0.155944 0.402703 0.402703
0.222290 0.402703 0.402703
0.301495 0.402703 0.402703
0.402703 0.402703 0.402703
0.554595 0.402703 0.402703
0.000000 0.554595 0.402703
0.046717 0.554595 0.402703
0.098209 0.554595 0.402703
0.155944 0.554595 0.402703
0.222290 0.554595 0.402703
0.301495 0.554595 0.402703
0.402703 0.554595 0.402703
0.554595 0.554595 0.402703
0.000000 0.000000 0.554595
0.046717 0.000000 0.554595
0.098209 0.000000 0.554595
0.155944 0.000000 0.554595
0.222290 0.000000 0.554595
0.301495 0.000000 0.554595
0.402703 0.000000 0.554595
0.554595 0.000000 0.554595
0.000000 0.046717 0.554595
0.046717 0.046717 0.554595
0.098209 0.046717 0.554595
0.155944 0.046717 0.554595
0.222290 0.046717 0.554595
0.301495 0.046717 0.554595
0.402703 0.046717 0.554595
0.554595 0.046717 0.554595
0.000000 0.098209 0.554595
0.046717 0.098209 0.554595
0.098209 0.098209 0.554595
0.155944 0.098209 0.554595
0.222290 0.098209 0.554595
0.301495 0.098209 0.554595
0.402703 0.098209 0.554595
0.554595 0.098209 0.554595
0.000000 0.155944 0.554595
0.046717 0.155944 0.554595
0.098209 0.155944 0.554595
0.155944 0.155944 0.554595
0.222290 0.155944 0.554595
0.301495 0.155944 0.554595
0.402703 0.155944 0.554595
0.554595 0.155944 0.554595
0.000000 0.222290 0.554595
0.046717 0.222290 0.554595
0.098209 0.222290 0.554595
0.155944 0.222290 0.554595
0.222290 0.222290 0.554595
0.301495 0.222290 0.554595
0.402703 0.222290 0.554595
0.554595 0.222290 0.554595
0.000000 0.301495 0.554595
0.046717 0.301495 0.554595
0.098209 0.301495 0.554595
0.155944 0.301495 0.554595
0.222290 0.301495 0.554595
0.301495 0.301495 0.554595
0.402703 0.301495 0.554595
0.554595 0.301495 0.554595
0.000000 0.402703 0.554595
0.046717 0.402703 0.554595
0.098209 0.402703 0.554595
0.155944 0.402703 0.554595
0.222290 0.402703 0.554595
0.301495 0.402703 0.554595
0.402703 0.402703 0.554595
0.554595 0.402703 0.554595
0.000000 0.554595 0.554595
0.046717 0.554595 0.554595
0.098209 0.554595 0.554595
0.155944 0.554595 0.554595
0.222290 0.554595 0.554595
0.301495 0.554595 0.554595
0.402703 0.554595 0.554595
0.554595 0.554595 0.554595
