assets/dark_lut.cube
#Created by: Affinity Photo (Serif Europe Ltd.)
TITLE "Exported LUT"
#LUT size
LUT_3D_SIZE 5
#data domain
#LUT data points
DOMAIN_MIN 0.000000 0.000000 0.000000
DOMAIN_MAX 0.903226 0.903226 0.903226
0.000000 0.000000 0.000000
0.084819 0.000000 0.000000
0.187838 0.000000 0.000000
0.324174 0.000000 0.000000
0.554595 0.000000 0.000000
0.000000 0.084819 0.000000
0.084819 0.084819 0.000000
0.187838 0.084819 0.000000
0.324174 0.084819 0.000000
0.554595 0.084819 0.000000
0.000000 0.187838 0.000000
0.084819 0.187838 0.000000
0.187838 0.187838 0.000000
0.324174 0.187838 0.000000
0.554595 0.187838 0.000000
0.000000 0.324174 0.000000
0.084819 0.324174 0.000000
0.187838 0.324174 0.000000
0.324174 0.324174 0.000000
0.554595 0.324174 0.000000
0.000000 0.554595 0.000000
0.084819 0.554595 0.000000
0.187838 0.554595 0.000000
0.324174 0.554595 0.000000
0.554595 0.554595 0.000000
0.000000 0.000000 0.084819
0.084819 0.000000 0.084819
0.187838 0.000000 0.084819
0.324174 0.000000 0.084819
0.554595 0.000000 0.084819
0.000000 0.084819 0.084819
0.084819 0.084819 0.084819
0.187838 0.084819 0.084819
0.324174 0.084819 0.084819
0.554595 0.084819 0.084819
0.000000 0.187838 0.084819
0.084819 0.187838 0.084819
0.187838 0.187838 0.084819
0.324174 0.187838 0.084819
0.554595 0.187838 0.084819
0.000000 0.324174 0.084819
0.084819 0.324174 0.084819
0.187838 0.324174 0.084819
0.324174 0.324174 0.084819
0.554595 0.324174 0.084819
0.000000 0.554595 0.084819
0.084819 0.554595 0.084819
0.187838 0.554595 0.084819
0.324174 0.554595 0.084819
0.554595 0.554595 0.084819
0.000000 0.000000 0.187838
0.084819 0.000000 0.187838
0.187838 0.000000 0.187838
0.324174 0.000000 0.187838
0.554595 0.000000 0.187838
0.000000 0.084819 0.187838
0.084819 0.084819 0.187838
0.187838 0.084819 0.187838
0.324174 0.084819 0.187838
0.554595 0.084819 0.187838
0.000000 0.187838 0.187838
0.084819 0.187838 0.187838
0.187838 0.187838 0.187838
0.324174 0.187838 0.187838
0.554595 0.187838 0.187838
0.000000 0.324174 0.187838
0.084819 0.324174 0.187838
0.187838 0.324174 0.187838
0.324174 0.324174 0.187838
0.554595 0.324174 0.187838
0.000000 0.554595 0.187838
0.084819 0.554595 0.187838
0.187838 0.554595 0.187838
0.324174 0.554595 0.187838
0.554595 0.554595 0.187838
0.000000 0.000000 0.324174
0.084819 0.000000 0.324174
0.187838 0.000000 0.324174
0.324174 0.000000 0.324174
0.554595 0.000000 0.324174
0.000000 0.084819 0.324174
0.084819 0.084819 0.324174
0.187838 0.084819 0.324174
0.324174 0.084819 0.324174
0.554595 0.084819 0.324174
0.000000 0.187838 0.324174
0.084819 0.187838 0.324174
0.187838 0.187838 0.324174
0.324174 0.187838 0.324174
0.554595 0.187838 0.324174
0.000000 0.324174 0.324174
0.084819 0.324174 0.324174
0.187838 0.324174 0.324174
0.324174 0.324174 0.324174
0.554595 0.324174 0.324174
0.000000 0.554595 0.324174
0.084819 0.554595 0.324174
0.187838 0.554595 0.324174
0.324174 0.554595 0.324174
0.554595 0.554595 0.324174
0.000000 0.000000 0.554595
0.084819 0.000000 0.554595
0.187838 0.000000 0.554595
0.324174 0.000000 0.554595
0.554595 0.000000 0.554595
0.000000 0.084819 0.554595
0.084819 0.084819 0.554595
0.187838 0.084819 0.554595
0.324174 0.084819 0.554595
0.554595 0.084819 0.554595
0.000000 0.187838 0.554595
0.084819 0.187838 0.554595
0.187838 0.187838 0.554595
0.324174 0.187838 0.554595
0.554595 0.187838 0.554595
0.000000 0.324174 0.554595
0.084819 0.324174 0.554595
0.187838 0.324174 0.554595
0.324174 0.324174 0.554595
0.554595 0.324174 0.554595
0.000000 0.554595 0.554595
0.084819 0.554595 0.554595
0.187838 0.554595 0.554595
0.324174 0.554595 0.554595
0.554595 0.554595 0.554595
