assets/dark_lut.cube
#Created by: Affinity Photo (Serif Europe Ltd.)
TITLE "Exported LUT"
#LUT size
LUT_3D_SIZE 32
#data domain
DOMAIN_MIN 0.0 0.0 0.0
DOMAIN_MAX 1.0 1.0 1.0
#LUT data points
0.000000 0.000000 0.000000
0.011291 0.000000 0.000000
0.022831 0.000000 0.000000
0.034635 0.000000 0.000000
0.046717 0.000000 0.000000
0.059095 0.000000 0.000000
0.071789 0.000000 0.000000
0.084819 0.000000 0.000000
0.098209 0.000000 0.000000
0.111985 0.000000 0.000000
0.126176 0.000000 0.000000
0.140817 0.000000 0.000000
0.155944 0.000000 0.000000
0.171602 0.000000 0.000000
0.187838 0.000000 0.000000
0.204712 0.000000 0.000000
0.222290 0.000000 0.000000
0.240652 0.000000 0.000000
0.259892 0.000000 0.000000
0.280126 0.000000 0.000000
0.301495 0.000000 0.000000
0.324174 0.000000 0.000000
0.348389 0.000000 0.000000
0.374433 0.000000 0.000000
0.402703 0.000000 0.000000
0.433753 0.000000 0.000000
0.468401 0.000000 0.000000
0.507934 0.000000 0.000000
0.554595 0.000000 0.000000
0.612945 0.000000 0.000000
0.695546 0.000000 0.000000
1.000000 0.000000 0.000000
0.000000 0.011291 0.000000
0.011291 0.011291 0.000000
0.022831 0.011291 0.000000
0.034635 0.011291 0.000000
0.046717 0.011291 0.000000
0.059095 0.011291 0.000000
0.071789 0.011291 0.000000
0.084819 0.011291 0.000000
0.098209 0.011291 0.000000
0.111985 0.011291 0.000000
0.126176 0.011291 0.000000
0.140817 0.011291 0.000000
0.155944 0.011291 0.000000
0.171602 0.011291 0.000000
0.187838 0.011291 0.000000
0.204712 0.011291 0.000000
0.222290 0.011291 0.000000
0.240652 0.011291 0.000000
0.259892 0.011291 0.000000
0.280126 0.011291 0.000000
0.301495 0.011291 0.000000
0.324174 0.011291 0.000000
0.348389 0.011291 0.000000
0.374433 0.011291 0.000000
0.402703 0.011291 0.000000
0.433753 0.011291 0.000000
0.468401 0.011291 0.000000
0.507934 0.011291 0.000000
0.554595 0.011291 0.000000
0.612945 0.011291 0.000000
0.695546 0.011291 0.000000
1.000000 0.011291 0.000000
0.000000 0.022831 0.000000
0.011291 0.022831 0.000000
0.022831 0.022831 0.000000
0.034635 0.022831 0.000000
0.046717 0.022831 0.000000
0.059095 0.022831 0.000000
0.071789 0.022831 0.000000
0.084819 0.022831 0.000000
0.098209 0.022831 0.000000
0.111985 0.022831 0.000000
0.126176 0.022831 0.000000
0.140817 0.022831 0.000000
0.155944 0.022831 0.000000
0.171602 0.022831 0.000000
0.187838 0.022831 0.000000
0.204712 0.022831 0.000000
0.222290 0.022831 0.000000
0.240652 0.022831 0.000000
0.259892 0.022831 0.000000
0.280126 0.022831 0.000000
0.301495 0.022831 0.000000
0.324174 0.022831 0.000000
0.348389 0.022831 0.000000
0.374433 0.022831 0.000000
0.402703 0.022831 0.000000
0.433753 0.022831 0.000000
0.468401 0.022831 0.000000
0.507934 0.022831 0.000000
0.554595 0.022831 0.000000
0.612945 0.022831 0.000000
0.695546 0.022831 0.000000
1.000000 0.022831 0.000000
0.000000 0.034635 0.000000
0.011291 0.034635 0.000000
0.022831 0.034635 0.000000
0.034635 0.034635 0.000000
0.046717 0.034635 0.000000
0.059095 0.034635 0.000000
0.071789 0.034635 0.000000
0.084819 0.034635 0.000000
0.098209 0.034635 0.000000
0.111985 0.034635 0.000000
0.126176 0.034635 0.000000
0.140817 0.034635 0.000000
0.155944 0.034635 0.000000
0.171602 0.034635 0.000000
0.187838 0.034635 0.000000
0.204712 0.034635 0.000000
0.222290 0.034635 0.000000
0.240652 0.034635 0.000000
0.259892 0.034635 0.000000
0.280126 0.034635 0.000000
0.301495 0.034635 0.000000
0.324174 0.034635 0.000000
0.348389 0.034635 0.000000
0.374433 0.034635 0.000000
0.402703 0.034635 0.000000
0.433753 0.034635 0.000000
0.468401 0.034635 0.000000
0.507934 0.034635 0.000000
0.554595 0.034635 0.000000
0.612945 0.034635 0.000000
0.695546 0.034635 0.000000
1.000000 0.034635 0.000000
0.000000 0.046717 0.000000
0.011291 0.046717 0.000000
0.022831 0.046717 0.000000
0.034635 0.046717 0.000000
0.046717 0.046717 0.000000
0.059095 0.046717 0.000000
0.071789 0.046717 0.000000
0.084819 0.046717 0.000000
0.098209 0.046717 0.000000
0.111985 0.046717 0.000000
0.126176 0.046717 0.000000
0.140817 0.046717 0.000000
0.155944 0.046717 0.000000
0.171602 0.046717 0.000000
0.187838 0.046717 0.000000
0.204712 0.046717 0.000000
0.222290 0.046717 0.000000
0.240652 0.046717 0.000000
0.259892 0.046717 0.000000
0.280126 0.046717 0.000000
0.301495 0.046717 0.000000
0.324174 0.046717 0.000000
0.348389 0.046717 0.000000
0.374433 0.046717 0.000000
0.402703 0.046717 0.000000
0.433753 0.046717 0.000000
0.468401 0.046717 0.000000
0.507934 0.046717 0.000000
0.554595 0.046717 0.000000
0.612945 0.046717 0.000000
0.695546 0.046717 0.000000
1.000000 0.046717 0.000000
0.000000 0.059095 0.000000
0.011291 0.059095 0.000000
0.022831 0.059095 0.000000
0.034635 0.059095 0.000000
0.046717 0.059095 0.000000
0.059095 0.059095 0.000000
0.071789 0.059095 0.000000
0.084819 0.059095 0.000000
0.098209 0.059095 0.000000
0.111985 0.059095 0.000000
0.126176 0.059095 0.000000
0.140817 0.059095 0.000000
0.155944 0.059095 0.000000
0.171602 0.059095 0.000000
0.187838 0.059095 0.000000
0.204712 0.059095 0.000000
0.222290 0.059095 0.000000
0.240652 0.059095 0.000000
0.259892 0.059095 0.000000
0.280126 0.059095 0.000000
0.301495 0.059095 0.000000
0.324174 0.059095 0.000000
0.348389 0.059095 0.000000
0.374433 0.059095 0.000000
0.402703 0.059095 0.000000
0.433753 0.059095 0.000000
0.468401 0.059095 0.000000
0.507934 0.059095 0.000000
0.554595 0.059095 0.000000
0.612945 0.059095 0.000000
0.695546 0.059095 0.000000
1.000000 0.059095 0.000000
0.000000 0.071789 0.000000
0.011291 0.071789 0.000000
0.022831 0.071789 0.000000
0.034635 0.071789 0.000000
0.046717 0.071789 0.000000
0.059095 0.071789 0.000000
0.071789 0.071789 0.000000
0.084819 0.071789 0.000000
0.098209 0.071789 0.000000
0.111985 0.071789 0.000000
0.126176 0.071789 0.000000
0.140817 0.071789 0.000000
0.155944 0.071789 0.000000
0.171602 0.071789 0.000000
0.187838 0.071789 0.000000
0.204712 0.071789 0.000000
0.222290 0.071789 0.000000
0.240652 0.071789 0.000000
0.259892 0.071789 0.000000
0.280126 0.071789 0.000000
0.301495 0.071789 0.000000
0.324174 0.071789 0.000000
0.348389 0.071789 0.000000
0.374433 0.071789 0.000000
0.402703 0.071789 0.000000
0.433753 0.071789 0.000000
0.468401 0.071789 0.000000
0.507934 0.071789 0.000000
0.554595 0.071789 0.000000
0.612945 0.071789 0.000000
0.695546 0.071789 0.000000
1.000000 0.071789 0.000000
0.000000 0.084819 0.000000
0.011291 0.084819 0.000000
0.022831 0.084819 0.000000
0.034635 0.084819 0.000000
0.046717 0.084819 0.000000
0.059095 0.084819 0.000000
0.071789 0.084819 0.000000
0.084819 0.084819 0.000000
0.098209 0.084819 0.000000
0.111985 0.084819 0.000000
0.126176 0.084819 0.000000
0.140817 0.084819 0.000000
0.155944 0.084819 0.000000
0.171602 0.084819 0.000000
0.187838 0.084819 0.000000
0.204712 0.084819 0.000000
0.222290 0.084819 0.000000
0.240652 0.084819 0.000000
0.259892 0.084819 0.000000
0.280126 0.084819 0.000000
0.301495 0.084819 0.000000
0.324174 0.084819 0.000000
0.348389 0.084819 0.000000
0.374433 0.084819 0.000000
0.402703 0.084819 0.000000
0.433753 0.084819 0.000000
0.468401 0.084819 0.000000
0.507934 0.084819 0.000000
0.554595 0.084819 0.000000
0.612945 0.084819 0.000000
0.695546 0.084819 0.000000
1.000000 0.084819 0.000000
0.000000 0.098209 0.000000
0.011291 0.098209 0.000000
0.022831 0.098209 0.000000
0.034635 0.098209 0.000000
0.046717 0.098209 0.000000
0.059095 0.098209 0.000000
0.071789 0.098209 0.000000
0.084819 0.098209 0.000000
0.098209 0.098209 0.000000
0.111985 0.098209 0.000000
0.126176 0.098209 0.000000
0.140817 0.098209 0.000000
0.155944 0.098209 0.000000
0.171602 0.098209 0.000000
0.187838 0.098209 0.000000
0.204712 0.098209 0.000000
0.222290 0.098209 0.000000
0.240652 0.098209 0.000000
0.259892 0.098209 0.000000
0.280126 0.098209 0.000000
0.301495 0.098209 0.000000
0.324174 0.098209 0.000000
0.348389 0.098209 0.000000
0.374433 0.098209 0.000000
0.402703 0.098209 0.000000
0.433753 0.098209 0.000000
0.468401 0.098209 0.000000
0.507934 0.098209 0.000000
0.554595 0.098209 0.000000
0.612945 0.098209 0.000000
0.695546 0.098209 0.000000
1.000000 0.098209 0.000000
0.000000 0.111985 0.000000
0.011291 0.111985 0.000000
0.022831 0.111985 0.000000
0.034635 0.111985 0.000000
0.046717 0.111985 0.000000
0.059095 0.111985 0.000000
0.071789 0.111985 0.000000
0.084819 0.111985 0.000000
0.098209 0.111985 0.000000
0.111985 0.111985 0.000000
0.126176 0.111985 0.000000
0.140817 0.111985 0.000000
0.155944 0.111985 0.000000
0.171602 0.111985 0.000000
0.187838 0.111985 0.000000
0.204712 0.111985 0.000000
0.222290 0.111985 0.000000
0.240652 0.111985 0.000000
0.259892 0.111985 0.000000
0.280126 0.111985 0.000000
0.301495 0.111985 0.000000
0.324174 0.111985 0.000000
0.348389 0.111985 0.000000
0.374433 0.111985 0.000000
0.402703 0.111985 0.000000
0.433753 0.111985 0.000000
0.468401 0.111985 0.000000
0.507934 0.111985 0.000000
0.554595 0.111985 0.000000
0.612945 0.111985 0.000000
0.695546 0.111985 0.000000
1.000000 0.111985 0.000000
0.000000 0.126176 0.000000
0.011291 0.126176 0.000000
0.022831 0.126176 0.000000
0.034635 0.126176 0.000000
0.046717 0.126176 0.000000
0.059095 0.126176 0.000000
0.071789 0.126176 0.000000
0.084819 0.126176 0.000000
0.098209 0.126176 0.000000
0.111985 0.126176 0.000000
0.126176 0.126176 0.000000
0.140817 0.126176 0.000000
0.155944 0.126176 0.000000
0.171602 0.126176 0.000000
0.187838 0.126176 0.000000
0.204712 0.126176 0.000000
0.222290 0.126176 0.000000
0.240652 0.126176 0.000000
0.259892 0.126176 0.000000
0.280126 0.126176 0.000000
0.301495 0.126176 0.000000
0.324174 0.126176 0.000000
0.348389 0.126176 0.000000
0.374433 0.126176 0.000000
0.402703 0.126176 0.000000
0.433753 0.126176 0.000000
0.468401 0.126176 0.000000
0.507934 0.126176 0.000000
0.554595 0.126176 0.000000
0.612945 0.126176 0.000000
0.695546 0.126176 0.000000
1.000000 0.126176 0.000000
0.000000 0.140817 0.000000
0.011291 0.140817 0.000000
0.022831 0.140817 0.000000
0.034635 0.140817 0.000000
0.046717 0.140817 0.000000
0.059095 0.140817 0.000000
0.071789 0.140817 0.000000
0.084819 0.140817 0.000000
0.098209 0.140817 0.000000
0.111985 0.140817 0.000000
0.126176 0.140817 0.000000
0.140817 0.140817 0.000000
0.155944 0.140817 0.000000
0.171602 0.140817 0.000000
0.187838 0.140817 0.000000
0.204712 0.140817 0.000000
0.222290 0.140817 0.000000
0.240652 0.140817 0.000000
0.259892 0.140817 0.000000
0.280126 0.140817 0.000000
0.301495 0.140817 0.000000
0.324174 0.140817 0.000000
0.348389 0.140817 0.000000
0.374433 0.140817 0.000000
0.402703 0.140817 0.000000
0.433753 0.140817 0.000000
0.468401 0.140817 0.000000
0.507934 0.140817 0.000000
0.554595 0.140817 0.000000
0.612945 0.140817 0.000000
0.695546 0.140817 0.000000
1.000000 0.140817 0.000000
0.000000 0.155944 0.000000
0.011291 0.155944 0.000000
0.022831 0.155944 0.000000
0.034635 0.155944 0.000000
0.046717 0.155944 0.000000
0.059095 0.155944 0.000000
0.071789 0.155944 0.000000
0.084819 0.155944 0.000000
0.098209 0.155944 0.000000
0.111985 0.155944 0.000000
0.126176 0.155944 0.000000
0.140817 0.155944 0.000000
0.155944 0.155944 0.000000
0.171602 0.155944 0.000000
0.187838 0.155944 0.000000
0.204712 0.155944 0.000000
0.222290 0.155944 0.000000
0.240652 0.155944 0.000000
0.259892 0.155944 0.000000
0.280126 0.155944 0.000000
0.301495 0.155944 0.000000
0.324174 0.155944 0.000000
0.348389 0.155944 0.000000
0.374433 0.155944 0.000000
0.402703 0.155944 0.000000
0.433753 0.155944 0.000000
0.468401 0.155944 0.000000
0.507934 0.155944 0.000000
0.554595 0.155944 0.000000
0.612945 0.155944 0.000000
0.695546 0.155944 0.000000
1.000000 0.155944 0.000000
0.000000 0.171602 0.000000
0.011291 0.171602 0.000000
0.022831 0.171602 0.000000
0.034635 0.171602 0.000000
0.046717 0.171602 0.000000
0.059095 0.171602 0.000000
0.071789 0.171602 0.000000
0.084819 0.171602 0.000000
0.098209 0.171602 0.000000
0.111985 0.171602 0.000000
0.126176 0.171602 0.000000
0.140817 0.171602 0.000000
0.155944 0.171602 0.000000
0.171602 0.171602 0.000000
0.187838 0.171602 0.000000
0.204712 0.171602 0.000000
0.222290 0.171602 0.000000
0.240652 0.171602 0.000000
0.259892 0.171602 0.000000
0.280126 0.171602 0.000000
0.301495 0.171602 0.000000
0.324174 0.171602 0.000000
0.348389 0.171602 0.000000
0.374433 0.171602 0.000000
0.402703 0.171602 0.000000
0.433753 0.171602 0.000000
0.468401 0.171602 0.000000
0.507934 0.171602 0.000000
0.554595 0.171602 0.000000
0.612945 0.171602 0.000000
0.695546 0.171602 0.000000
1.000000 0.171602 0.000000
0.000000 0.187838 0.000000
0.011291 0.187838 0.000000
0.022831 0.187838 0.000000
0.034635 0.187838 0.000000
0.046717 0.187838 0.000000
0.059095 0.187838 0.000000
0.071789 0.187838 0.000000
0.084819 0.187838 0.000000
0.098209 0.187838 0.000000
0.111985 0.187838 0.000000
0.126176 0.187838 0.000000
0.140817 0.187838 0.000000
0.155944 0.187838 0.000000
0.171602 0.187838 0.000000
0.187838 0.187838 0.000000
0.204712 0.187838 0.000000
0.222290 0.187838 0.000000
0.240652 0.187838 0.000000
0.259892 0.187838 0.000000
0.280126 0.187838 0.000000
0.301495 0.187838 0.000000
0.324174 0.187838 0.000000
0.348389 0.187838 0.000000
0.374433 0.187838 0.000000
0.402703 0.187838 0.000000
0.433753 0.187838 0.000000
0.468401 0.187838 0.000000
0.507934 0.187838 0.000000
0.554595 0.187838 0.000000
0.612945 0.187838 0.000000
0.695546 0.187838 0.000000
1.000000 0.187838 0.000000
0.000000 0.204712 0.000000
0.011291 0.204712 0.000000
0.022831 0.204712 0.000000
0.034635 0.204712 0.000000
0.046717 0.204712 0.000000
0.059095 0.204712 0.000000
0.071789 0.204712 0.000000
0.084819 0.204712 0.000000
0.098209 0.204712 0.000000
0.111985 0.204712 0.000000
0.126176 0.204712 0.000000
0.140817 0.204712 0.000000
0.155944 0.204712 0.000000
0.171602 0.204712 0.000000
0.187838 0.204712 0.000000
0.204712 0.204712 0.000000
0.222290 0.204712 0.000000
0.240652 0.204712 0.000000
0.259892 0.204712 0.000000
0.280126 0.204712 0.000000
0.301495 0.204712 0.000000
0.324174 0.204712 0.000000
0.348389 0.204712 0.000000
0.374433 0.204712 0.000000
0.402703 0.204712 0.000000
0.433753 0.204712 0.000000
0.468401 0.204712 0.000000
0.507934 0.204712 0.000000
0.554595 0.204712 0.000000
0.612945 0.204712 0.000000
0.695546 0.204712 0.000000
1.000000 0.204712 0.000000
0.000000 0.222290 0.000000
0.011291 0.222290 0.000000
0.022831 0.222290 0.000000
0.034635 0.222290 0.000000
0.046717 0.222290 0.000000
0.059095 0.222290 0.000000
0.071789 0.222290 0.000000
0.084819 0.222290 0.000000
0.098209 0.222290 0.000000
0.111985 0.222290 0.000000
0.126176 0.222290 0.000000
0.140817 0.222290 0.000000
0.155944 0.222290 0.000000
0.171602 0.222290 0.000000
0.187838 0.222290 0.000000
0.204712 0.222290 0.000000
0.222290 0.222290 0.000000
0.240652 0.222290 0.000000
0.259892 0.222290 0.000000
0.280126 0.222290 0.000000
0.301495 0.222290 0.000000
0.324174 0.222290 0.000000
0.348389 0.222290 0.000000
0.374433 0.222290 0.000000
0.402703 0.222290 0.000000
0.433753 0.222290 0.000000
0.468401 0.222290 0.000000
0.507934 0.222290 0.000000
0.554595 0.222290 0.000000
0.612945 0.222290 0.000000
0.695546 0.222290 0.000000
1.000000 0.222290 0.000000
0.000000 0.240652 0.000000
0.011291 0.240652 0.000000
0.022831 0.240652 0.000000
0.034635 0.240652 0.000000
0.046717 0.240652 0.000000
0.059095 0.240652 0.000000
0.071789 0.240652 0.000000
0.084819 0.240652 0.000000
0.098209 0.240652 0.000000
0.111985 0.240652 0.000000
0.126176 0.240652 0.000000
0.140817 0.240652 0.000000
0.155944 0.240652 0.000000
0.171602 0.240652 0.000000
0.187838 0.240652 0.000000
0.204712 0.240652 0.000000
0.222290 0.240652 0.000000
0.240652 0.240652 0.000000
0.259892 0.240652 0.000000
0.280126 0.240652 0.000000
0.301495 0.240652 0.000000
0.324174 0.240652 0.000000
0.348389 0.240652 0.000000
0.374433 0.240652 0.000000
0.402703 0.240652 0.000000
0.433753 0.240652 0.000000
0.468401 0.240652 0.000000
0.507934 0.240652 0.000000
0.554595 0.240652 0.000000
0.612945 0.240652 0.000000
0.695546 0.240652 0.000000
1.000000 0.240652 0.000000
0.000000 0.259892 0.000000
0.011291 0.259892 0.000000
0.022831 0.259892 0.000000
0.034635 0.259892 0.000000
0.046717 0.259892 0.000000
0.059095 0.259892 0.000000
0.071789 0.259892 0.000000
0.084819 0.259892 0.000000
0.098209 0.259892 0.000000
0.111985 0.259892 0.000000
0.126176 0.259892 0.000000
0.140817 0.259892 0.000000
0.155944 0.259892 0.000000
0.171602 0.259892 0.000000
0.187838 0.259892 0.000000
0.204712 0.259892 0.000000
0.222290 0.259892 0.000000
0.240652 0.259892 0.000000
0.259892 0.259892 0.000000
0.280126 0.259892 0.000000
0.301495 0.259892 0.000000
0.324174 0.259892 0.000000
0.348389 0.259892 0.000000
0.374433 0.259892 0.000000
0.402703 0.259892 0.000000
0.433753 0.259892 0.000000
0.468401 0.259892 0.000000
0.507934 0.259892 0.000000
0.554595 0.259892 0.000000
0.612945 0.259892 0.000000
0.695546 0.259892 0.000000
1.000000 0.259892 0.000000
0.000000 0.280126 0.000000
0.011291 0.280126 0.000000
0.022831 0.280126 0.000000
0.034635 0.280126 0.000000
0.046717 0.280126 0.000000
0.059095 0.280126 0.000000
0.071789 0.280126 0.000000
0.084819 0.280126 0.000000
0.098209 0.280126 0.000000
0.111985 0.280126 0.000000
0.126176 0.280126 0.000000
0.140817 0.280126 0.000000
0.155944 0.280126 0.000000
0.171602 0.280126 0.000000
0.187838 0.280126 0.000000
0.204712 0.280126 0.000000
0.222290 0.280126 0.000000
0.240652 0.280126 0.000000
0.259892 0.280126 0.000000
0.280126 0.280126 0.000000
0.301495 0.280126 0.000000
0.324174 0.280126 0.000000
0.348389 0.280126 0.000000
0.374433 0.280126 0.000000
0.402703 0.280126 0.000000
0.433753 0.280126 0.000000
0.468401 0.280126 0.000000
0.507934 0.280126 0.000000
0.554595 0.280126 0.000000
0.612945 0.280126 0.000000
0.695546 0.280126 0.000000
1.000000 0.280126 0.000000
0.000000 0.301495 0.000000
0.011291 0.301495 0.000000
0.022831 0.301495 0.000000
0.034635 0.301495 0.000000
0.046717 0.301495 0.000000
0.059095 0.301495 0.000000
0.071789 0.301495 0.000000
0.084819 0.301495 0.000000
0.098209 0.301495 0.000000
0.111985 0.301495 0.000000
0.126176 0.301495 0.000000
0.140817 0.301495 0.000000
0.155944 0.301495 0.000000
0.171602 0.301495 0.000000
0.187838 0.301495 0.000000
0.204712 0.301495 0.000000
0.222290 0.301495 0.000000
0.240652 0.301495 0.000000
0.259892 0.301495 0.000000
0.280126 0.301495 0.000000
0.301495 0.301495 0.000000
0.324174 0.301495 0.000000
0.348389 0.301495 0.000000
0.374433 0.301495 0.000000
0.402703 0.301495 0.000000
0.433753 0.301495 0.000000
0.468401 0.301495 0.000000
0.507934 0.301495 0.000000
0.554595 0.301495 0.000000
0.612945 0.301495 0.000000
0.695546 0.301495 0.000000
1.000000 0.301495 0.000000
0.000000 0.324174 0.000000
0.011291 0.324174 0.000000
0.022831 0.324174 0.000000
0.034635 0.324174 0.000000
0.046717 0.324174 0.000000
0.059095 0.324174 0.000000
0.071789 0.324174 0.000000
0.084819 0.324174 0.000000
0.098209 0.324174 0.000000
0.111985 0.324174 0.000000
0.126176 0.324174 0.000000
0.140817 0.324174 0.000000
0.155944 0.324174 0.000000
0.171602 0.324174 0.000000
0.187838 0.324174 0.000000
0.204712 0.324174 0.000000
0.222290 0.324174 0.000000
0.240652 0.324174 0.000000
0.259892 0.324174 0.000000
0.280126 0.324174 0.000000
0.301495 0.324174 0.000000
0.324174 0.324174 0.000000
0.348389 0.324174 0.000000
0.374433 0.324174 0.000000
0.402703 0.324174 0.000000
0.433753 0.324174 0.000000
0.468401 0.324174 0.000000
0.507934 0.324174 0.000000
0.554595 0.324174 0.000000
0.612945 0.324174 0.000000
0.695546 0.324174 0.000000
1.000000 0.324174 0.000000
0.000000 0.348389 0.000000
0.011291 0.348389 0.000000
0.022831 0.348389 0.000000
0.034635 0.348389 0.000000
0.046717 0.348389 0.000000
0.059095 0.348389 0.000000
0.071789 0.348389 0.000000
0.084819 0.348389 0.000000
0.098209 0.348389 0.000000
0.111985 0.348389 0.000000
0.126176 0.348389 0.000000
0.140817 0.348389 0.000000
0.155944 0.348389 0.000000
0.171602 0.348389 0.000000
0.187838 0.348389 0.000000
0.204712 0.348389 0.000000
0.222290 0.348389 0.000000
0.240652 0.348389 0.000000
0.259892 0.348389 0.000000
0.280126 0.348389 0.000000
0.301495 0.348389 0.000000
0.324174 0.348389 0.000000
0.348389 0.348389 0.000000
0.374433 0.348389 0.000000
0.402703 0.348389 0.000000
0.433753 0.348389 0.000000
0.468401 0.348389 0.000000
0.507934 0.348389 0.000000
0.554595 0.348389 0.000000
0.612945 0.348389 0.000000
0.695546 0.348389 0.000000
1.000000 0.348389 0.000000
0.000000 0.374433 0.000000
0.011291 0.374433 0.000000
0.022831 0.374433 0.000000
0.034635 0.374433 0.000000
0.046717 0.374433 0.000000
0.059095 0.374433 0.000000
0.071789 0.374433 0.000000
0.084819 0.374433 0.000000
0.098209 0.374433 0.000000
0.111985 0.374433 0.000000
0.126176 0.374433 0.000000
0.140817 0.374433 0.000000
0.155944 0.374433 0.000000
0.171602 0.374433 0.000000
0.187838 0.374433 0.000000
0.204712 0.374433 0.000000
0.222290 0.374433 0.000000
0.240652 0.374433 0.000000
0.259892 0.374433 0.000000
0.280126 0.374433 0.000000
0.301495 0.374433 0.000000
0.324174 0.374433 0.000000
0.348389 0.374433 0.000000
0.374433 0.374433 0.000000
0.402703 0.374433 0.000000
0.433753 0.374433 0.000000
0.468401 0.374433 0.000000
0.507934 0.374433 0.000000
0.554595 0.374433 0.000000
0.612945 0.374433 0.000000
0.695546 0.374433 0.000000
1.000000 0.374433 0.000000
0.000000 0.402703 0.000000
0.011291 0.402703 0.000000
0.022831 0.402703 0.000000
0.034635 0.402703 0.000000
0.046717 0.402703 0.000000
0.059095 0.402703 0.000000
0.071789 0.402703 0.000000
0.084819 0.402703 0.000000
0.098209 0.402703 0.000000
0.111985 0.402703 0.000000
0.126176 0.402703 0.000000
0.140817 0.402703 0.000000
0.155944 0.402703 0.000000
0.171602 0.402703 0.000000
0.187838 0.402703 0.000000
0.204712 0.402703 0.000000
0.222290 0.402703 0.000000
0.240652 0.402703 0.000000
0.259892 0.402703 0.000000
0.280126 0.402703 0.000000
0.301495 0.402703 0.000000
0.324174 0.402703 0.000000
0.348389 0.402703 0.000000
0.374433 0.402703 0.000000
0.402703 0.402703 0.000000
0.433753 0.402703 0.000000
0.468401 0.402703 0.000000
0.507934 0.402703 0.000000
0.554595 0.402703 0.000000
0.612945 0.402703 0.000000
0.695546 0.402703 0.000000
1.000000 0.402703 0.000000
0.000000 0.433753 0.000000
0.011291 0.433753 0.000000
0.022831 0.433753 0.000000
0.034635 0.433753 0.000000
0.046717 0.433753 0.000000
0.059095 0.433753 0.000000
0.071789 0.433753 0.000000
0.084819 0.433753 0.000000
0.098209 0.433753 0.000000
0.111985 0.433753 0.000000
0.126176 0.433753 0.000000
0.140817 0.433753 0.000000
0.155944 0.433753 0.000000
0.171602 0.433753 0.000000
0.187838 0.433753 0.000000
0.204712 0.433753 0.000000
0.222290 0.433753 0.000000
0.240652 0.433753 0.000000
0.259892 0.433753 0.000000
0.280126 0.433753 0.000000
0.301495 0.433753 0.000000
0.324174 0.433753 0.000000
0.348389 0.433753 0.000000
0.374433 0.433753 0.000000
0.402703 0.433753 0.000000
0.433753 0.433753 0.000000
0.468401 0.433753 0.000000
0.507934 0.433753 0.000000
0.554595 0.433753 0.000000
0.612945 0.433753 0.000000
0.695546 0.433753 0.000000
1.000000 0.433753 0.000000
0.000000 0.468401 0.000000
0.011291 0.468401 0.000000
0.022831 0.468401 0.000000
0.034635 0.468401 0.000000
0.046717 0.468401 0.000000
0.059095 0.468401 0.000000
0.071789 0.468401 0.000000
0.084819 0.468401 0.000000
0.098209 0.468401 0.000000
0.111985 0.468401 0.000000
0.126176 0.468401 0.000000
0.140817 0.468401 0.000000
0.155944 0.468401 0.000000
0.171602 0.468401 0.000000
0.187838 0.468401 0.000000
0.204712 0.468401 0.000000
0.222290 0.468401 0.000000
0.240652 0.468401 0.000000
0.259892 0.468401 0.000000
0.280126 0.468401 0.000000
0.301495 0.468401 0.000000
0.324174 0.468401 0.000000
0.348389 0.468401 0.000000
0.374433 0.468401 0.000000
0.402703 0.468401 0.000000
0.433753 0.468401 0.000000
0.468401 0.468401 0.000000
0.507934 0.468401 0.000000
0.554595 0.468401 0.000000
0.612945 0.468401 0.000000
0.695546 0.468401 0.000000
1.000000 0.468401 0.000000
0.000000 0.507934 0.000000
0.011291 0.507934 0.000000
0.022831 0.507934 0.000000
0.034635 0.507934 0.000000
0.046717 0.507934 0.000000
0.059095 0.507934 0.000000
0.071789 0.507934 0.000000
0.084819 0.507934 0.000000
0.098209 0.507934 0.000000
0.111985 0.507934 0.000000
0.126176 0.507934 0.000000
0.140817 0.507934 0.000000
0.155944 0.507934 0.000000
0.171602 0.507934 0.000000
0.187838 0.507934 0.000000
0.204712 0.507934 0.000000
0.222290 0.507934 0.000000
0.240652 0.507934 0.000000
